X:1
T:Title
%%score { ( 1 3 ) | ( 2 4 ) }
L:1/8
Q:1/4=156
M:3/2
K:F
V:1 treble nm="Grand Piano"
V:3 treble 
V:2 bass 
V:4 bass 
V:1
 [A,CF]4 [A,CF]4 [A,DF]4 | F8 z4 | F4- [FA]4 [EG]4 | A12 | c4 c4 c4 | c4 [F=B]4 [EGc]4 | %6
w: Fran~N.~Shepperd * *||||||
 f2- [Af]2 e4 d4 | [Ge]12 | [Gd]4 [Fd]4 [Ed]4 | [Fc]8 [CFA]4 | A8 z4 | F12 | F4 F4 F4 | E8 c4 | %14
w: ||||||||
 =B8 _A4 | [CEA]12 | [Ec]4 [Fd]4 [Ge]4 | f8 e4 | d8 d4 | d12 | [Ec]4 [Ec]4 [_Ec]4 | %21
w: |||||||
 [B,DB]8 [DFA]4 | [FA]8 z4 |[M:10/4] [F,A,F]12 z8 |[M:6/4] [B,DF]12 | [F,A,CF]12 |] %26
w: |||||
V:2
 F,4 E,4 D,4 | C,4 B,,4 A,,4 | G,,4 [C,C]4 [C,C]4 | [F,CF]12 | [A,E]4 [G,A,E]4 [F,A,F]4 | %5
 [E,G,]4 D,4 C,4 | .D4[K:treble] z4 z4 | [C,C]12 | [G,B,]4 [G,B,]4 [C,B,]4 | [F,A,]8 F,4 | %10
 E,4 D,4 ^C,4 | [D,A,D]12 | [_E,A,C]4 [E,A,C]4 [E,A,C]4 | [E,A,C]8 [E,A,E]4 | [E,_A,E]8 [E,DE]4 | %15
 [A,,A,]12 | [G,B,]4 [G,B,]4 [C,B,]4 | [F,A,F]8 [A,CF]4 | [B,DF]8 [A,C^F]4 | G8 z4 | %20
 [C,B,]4 [C,B,]4 [F,A,]4 | B,,8 B,,4 | z4 A,4 C,4 |[M:10/4] F,,12 z8 |[M:6/4] z4 F,2- F,2 G,4 | %25
 F,,12 |] %26
V:3
 x12 | [A,E]4 [B,D]4 [CF]4 | [DB]4 z4 z4 | x12 | x12 | G8 z4 | .F4 z4 z4 | x12 | x12 | x12 | %10
 [^CG]4 [DF]4 [A,EG]4 | x12 | x12 | x12 | x12 | x12 | x12 | x12 | x12 | z4 z4 F4 | x12 | x12 | %22
 C4 z4 [B,EG]4 |[M:10/4] x20 |[M:6/4] x12 | x12 |] %26
V:4
 x12 | x12 | x12 | x12 | x12 | x12 | D,2- [D,C]2[K:treble] [G,=B,G]4 [G,B,G]4 | x12 | x12 | x12 | %10
 x12 | x12 | x12 | x12 | x12 | x12 | x12 | x12 | x12 | [G,B,]12 | x12 | x12 | C,8 z4 | %23
[M:10/4] x20 |[M:6/4] B,,12 | x12 |] %26

